src/assets/imgs/service-i-2.svg

<svg width="100" height="99" viewBox="0 0 100 99" fill="none" xmlns="http://www.w3.org/2000/svg">
<rect x="0.56543" width="99" height="99" rx="49.5" fill="#8A8A8E"/>
<path d="M49.1221 20.598L48.8174 20.973L48.8525 23.7152L48.8877 26.4691L49.2158 26.7503C49.6729 27.1488 50.3408 27.1371 50.751 26.7269L51.0557 26.4105V23.6097V20.8089L50.7627 20.5277C50.5518 20.305 50.3525 20.2347 49.9541 20.2347C49.5205 20.2347 49.3916 20.2933 49.1221 20.598Z" fill="white"/>
<path d="M35.5288 24.2426C35.271 24.5473 35.2241 24.6996 35.271 25.0395C35.3413 25.5317 37.5678 29.434 38.0014 29.809C38.435 30.2075 39.0327 30.1723 39.478 29.727C39.7827 29.4223 39.8296 29.3051 39.771 28.9301C39.7124 28.4614 37.3569 24.2895 37.0171 24.02C36.9116 23.9379 36.5952 23.8676 36.3256 23.8676C35.9272 23.8676 35.7866 23.9262 35.5288 24.2426Z" fill="white"/>
<path d="M62.8564 24.125C62.6923 24.2773 62.0361 25.332 61.3798 26.4688C60.208 28.5195 60.0439 28.9648 60.2665 29.5508C60.3603 29.7852 60.9228 30.0781 61.2744 30.0781C61.8486 30.0664 62.1064 29.75 63.372 27.5469C64.79 25.0859 64.9072 24.6992 64.3564 24.1602C63.9814 23.7734 63.2548 23.7617 62.8564 24.125Z" fill="white"/>
<path d="M47.7746 29.6797C39.4895 30.7227 32.9973 36.7227 31.2395 44.9609C30.8762 46.6367 30.841 50.2812 31.1809 52.0508C32.1301 57.1836 35.0949 61.6953 39.3957 64.5547C41.4699 65.9375 41.3762 65.7031 41.4465 69.5117L41.5051 72.5586L41.8332 73.2266C42.1848 73.9414 42.8996 74.6445 43.4973 74.8555C43.8371 74.9844 43.8723 75.0547 43.9895 75.7695C44.2355 77.3281 45.1848 78.6406 46.5793 79.3203L47.3645 79.707H50.0012H52.6379L53.3762 79.3203C54.7941 78.582 55.7902 77.1758 55.9426 75.7227C56.0129 75.0781 56.0246 75.0547 56.5637 74.7852C56.8566 74.6328 57.302 74.293 57.548 74.0234C58.3449 73.1445 58.3684 73.0156 58.4387 69.6289L58.4973 66.582L58.8254 66.0195C59.0715 65.6094 59.3879 65.3164 59.9973 64.918C64.6965 61.918 67.8371 57.2656 68.7629 51.8984C69.091 50.0117 69.091 47.293 68.7512 45.3828C67.427 37.6953 61.5324 31.6133 53.8098 29.9609C52.9074 29.7617 52.134 29.7031 50.4113 29.668C49.1926 29.6445 47.9973 29.6562 47.7746 29.6797ZM52.4621 32.0117C59.6809 33.1016 65.4113 38.7852 66.5949 46.0156C66.9816 48.4062 66.7707 51.3125 66.0324 53.6328C64.802 57.4883 62.4934 60.5234 58.9777 62.8906C58.3215 63.3242 57.6066 63.8867 57.3957 64.1328C56.6105 65.0234 56.2121 66.3008 56.2121 67.9531V68.75H49.9426H43.673V67.6484C43.673 66.2891 43.3801 65.2461 42.7707 64.4492C42.2551 63.7695 42.2785 63.793 40.7434 62.75C39.1965 61.707 36.9699 59.4922 36.0441 58.0859C34.7668 56.1523 33.8762 54.0312 33.3957 51.7578C33.1027 50.3516 33.1027 46.9531 33.3957 45.5469C34.5324 40.2266 37.8137 35.9258 42.5598 33.5586C45.5363 32.0703 49.1691 31.5078 52.4621 32.0117ZM56.2121 71.5391C56.2121 71.8555 56.1301 72.207 56.0246 72.3594C55.6027 72.9688 55.5676 72.9688 49.9426 72.9688C45.2199 72.9688 44.6691 72.9453 44.3645 72.7695C43.9543 72.5234 43.673 71.9727 43.673 71.3984V70.9766H49.9426H56.2121V71.5391ZM53.7512 75.3711C53.7512 76.0039 53.0715 76.918 52.2863 77.3398C51.8645 77.5742 51.6418 77.5977 49.9426 77.5977C48.2434 77.5977 48.0207 77.5742 47.5988 77.3398C47.341 77.2109 47.0129 76.9648 46.8723 76.8125C46.6027 76.5312 46.1457 75.5938 46.134 75.3359C46.134 75.2305 46.9777 75.1953 49.9426 75.1953C53.2824 75.1953 53.7512 75.2188 53.7512 75.3711Z" fill="white"/>
<path d="M47.4816 35.9609C47.0597 36.207 46.966 36.4531 46.9542 37.2383V38.0117L46.4621 38.1523C46.1808 38.2344 45.6652 38.457 45.3019 38.6328L44.6574 38.9492L44.1066 38.4453C43.6378 38 43.4972 37.9297 43.0636 37.9297C42.5597 37.9297 42.5246 37.9648 40.8839 39.6055C39.2902 41.2227 39.2199 41.3047 39.2199 41.7617C39.2199 42.1602 39.3019 42.3359 39.7355 42.8164L40.2511 43.3789L39.9816 43.9062C39.841 44.1992 39.63 44.6797 39.5128 44.9844L39.3019 45.5469H38.7277C38.0128 45.5469 37.4269 45.8047 37.2394 46.2031C37.0519 46.6133 37.0636 50.7031 37.2511 51.1133C37.4386 51.5469 37.9191 51.7578 38.6691 51.7578H39.3019L39.63 52.6016C39.8058 53.0703 40.0285 53.5859 40.1222 53.7383C40.2863 53.9961 40.2746 54.043 39.7589 54.5586C39.3019 55.0273 39.2199 55.1797 39.2199 55.5664C39.2199 56.0117 39.3019 56.1172 40.8956 57.6875C41.8097 58.6016 42.6886 59.375 42.841 59.4102C43.2277 59.5039 43.6613 59.3164 44.1535 58.8242L44.5871 58.4141L45.6417 58.8359C46.216 59.0703 46.755 59.2578 46.8253 59.2578C46.9074 59.2578 46.9542 59.5273 46.9542 60.0078C46.9542 61.4492 47.0363 61.4844 50.048 61.4844C52.2863 61.4844 52.3331 61.4844 52.6613 61.2031C52.9425 60.957 52.9894 60.8281 53.0246 60.0898C53.048 59.6328 53.13 59.2578 53.2003 59.2578C53.2589 59.2578 53.7628 59.0703 54.3019 58.8359L55.298 58.4141L55.7316 58.8359C56.2824 59.375 56.8097 59.5391 57.3136 59.3281C57.8058 59.1172 60.63 56.2344 60.7238 55.8359C60.841 55.3906 60.7003 55.0742 60.1613 54.4883L59.6925 53.9844L60.0558 53.1875C60.255 52.7539 60.4542 52.2617 60.4894 52.0977C60.5597 51.8047 60.6183 51.7812 61.3917 51.7344C62.1183 51.6992 62.2472 51.6523 62.4933 51.3711C62.7746 51.043 62.7746 50.9961 62.7746 48.6992C62.7746 47.2461 62.7277 46.2617 62.6456 46.1094C62.4699 45.7812 61.8371 45.5469 61.1339 45.5469C60.7706 45.5469 60.548 45.5 60.548 45.418C60.548 45.3359 60.3605 44.832 60.1261 44.293L59.7042 43.3086L60.1847 42.793C60.7355 42.1953 60.8644 41.8086 60.6652 41.3398C60.5949 41.1641 59.8331 40.3203 58.9777 39.4648C57.4542 37.9531 57.4191 37.9297 56.9035 37.9297C56.4347 37.9297 56.3175 37.9883 55.8722 38.4453L55.3683 38.9609L54.6417 38.6328C54.255 38.457 53.7394 38.2461 53.505 38.1758L53.0714 38.0352L53.0246 37.2266C52.9894 36.5703 52.9308 36.3477 52.7199 36.1367C52.4621 35.8906 52.3683 35.8789 50.0831 35.8437C48.4308 35.832 47.6456 35.8672 47.4816 35.9609ZM50.8214 38.6797C50.8214 39.5586 51.0675 39.8398 52.0636 40.0859C52.9191 40.2969 54.1496 40.8242 54.6769 41.1992C55.2277 41.5977 55.8839 41.5273 56.423 41.0352L56.88 40.6367L57.4425 41.2109L58.005 41.7852L57.5831 42.2656C57.0089 42.8867 57.0206 43.2031 57.6652 44.4102C57.9581 44.9375 58.3214 45.8281 58.4972 46.3906C58.8605 47.5977 59.0363 47.7734 59.9269 47.7734H60.548V48.6523V49.5312H59.9269C59.0363 49.5312 58.8605 49.707 58.4972 50.9141C58.3214 51.4766 57.9581 52.3672 57.6652 52.8945C57.0206 54.1133 57.0089 54.418 57.6183 55.0742L58.0753 55.5781L57.5011 56.1523L56.9269 56.7148L56.4464 56.293C55.8019 55.707 55.4152 55.7187 54.1847 56.375C53.2941 56.8437 52.5558 57.1367 51.7238 57.3242C51.5363 57.3594 51.255 57.5234 51.1027 57.6758C50.8683 57.9102 50.8214 58.0742 50.8214 58.6133V59.2578H50.0128H49.216L49.1456 58.6016C49.0519 57.7344 48.7941 57.4648 47.8214 57.2187C46.9542 56.9961 46.0519 56.6211 45.3371 56.1758C44.6339 55.7187 44.1417 55.7539 43.5558 56.293L43.0753 56.7148L42.5011 56.1523L41.9269 55.5898L42.3253 55.1328C42.8996 54.5 42.8761 54.0547 42.2199 52.8008C41.9269 52.2617 41.5871 51.418 41.4581 50.9375C41.1417 49.8008 40.8605 49.5312 39.9699 49.5312H39.3371V48.6523V47.7734H40.0167C40.8956 47.7734 41.13 47.5391 41.4581 46.3555C41.5871 45.875 41.9269 45.043 42.2199 44.5039C42.8761 43.25 42.8996 42.8047 42.3253 42.1719L41.9269 41.7148L42.5011 41.1523L43.0871 40.5781L43.5324 41.0117C44.1417 41.6094 44.4933 41.5859 45.9581 40.8594C46.6027 40.5312 47.4464 40.1914 47.8331 40.0977C48.7706 39.8633 49.0519 39.5586 49.1456 38.7148L49.216 38.0469H50.0128H50.8214V38.6797Z" fill="white"/>
<path d="M48.3838 41.6208C46.0049 42.1364 43.9072 44.0583 43.1221 46.4255C42.8525 47.2224 42.8057 47.5622 42.8057 48.7106C42.8057 49.8708 42.8525 50.1755 43.1104 50.9138C43.5557 52.1442 44.083 52.9528 45.0205 53.8435C46.7432 55.4841 48.9932 56.152 51.3604 55.7302C52.2861 55.5661 54.0205 54.7106 54.7588 54.0544C56.1885 52.7888 57.0322 50.9841 57.126 49.0036C57.1846 47.5388 56.9736 46.5661 56.3057 45.277C54.8291 42.4528 51.5479 40.9411 48.3838 41.6208ZM51.1143 43.8474C52.0869 44.1052 52.8369 44.5505 53.5283 45.277C55.8838 47.7731 55.1455 51.652 52.0283 53.1286C49.5908 54.2888 46.708 53.2458 45.4893 50.7731C43.6846 47.0935 47.1533 42.8161 51.1143 43.8474Z" fill="white"/>
<path d="M25.5678 34.203C25.31 34.5195 25.2631 34.6601 25.31 35.0351C25.3452 35.2929 25.4389 35.5741 25.5327 35.6562C25.6147 35.7382 26.6577 36.371 27.853 37.0624C30.3022 38.4687 30.7124 38.5859 31.2163 37.9999C31.5444 37.6132 31.5796 36.8984 31.2866 36.5351C31.1694 36.4062 30.1147 35.7382 28.9311 35.0585C26.4585 33.6405 26.1186 33.5468 25.5678 34.203Z" fill="white"/>
<path d="M71.5049 34.7777C70.6026 35.2933 69.5947 35.8793 69.2549 36.0785C68.4229 36.5824 68.2119 37.1097 68.5752 37.8129C68.7627 38.1644 69.0791 38.3168 69.6065 38.305C69.9346 38.2933 73.8487 36.1254 74.3526 35.6683C74.7276 35.3168 74.7158 34.5082 74.3174 34.1214C73.8135 33.6058 73.3565 33.7113 71.5049 34.7777Z" fill="white"/>
<path d="M21.9817 47.762C21.5481 48.2073 21.5247 48.7932 21.9231 49.262L22.2044 49.5901L24.8762 49.6252C27.8762 49.6604 28.1341 49.6135 28.4036 48.969C28.5325 48.6643 28.5442 48.4885 28.4387 48.1721C28.1927 47.4456 28.0989 47.4221 25.0637 47.4221H22.3216L21.9817 47.762Z" fill="white"/>
<path d="M72.0094 47.5977C71.5641 47.8438 71.3883 48.4531 71.611 48.9922C71.7165 49.25 71.9157 49.4609 72.0915 49.5312C72.2672 49.6016 73.5797 49.6484 75.0329 49.6484H77.6813L78.0211 49.3086C78.2672 49.0508 78.361 48.8516 78.361 48.5352C78.361 48.2188 78.2672 48.0195 78.0211 47.7617L77.6813 47.4219H74.9977C72.8883 47.4336 72.2555 47.4688 72.0094 47.5977Z" fill="white"/>
<path d="M27.9696 59.9143C26.7742 60.594 25.6844 61.2737 25.5321 61.4377C25.1571 61.8713 25.1805 62.469 25.6141 62.9026C26.1883 63.4651 26.4578 63.3948 28.8953 61.9885C30.0906 61.2971 31.1571 60.6409 31.2742 60.5237C31.4149 60.383 31.4852 60.137 31.4852 59.7971C31.4852 59.3635 31.4266 59.2346 31.1219 58.9768C30.9227 58.8127 30.618 58.6721 30.4539 58.6721C30.2664 58.6721 29.2469 59.176 27.9696 59.9143Z" fill="white"/>
<path d="M69.0323 58.7774C68.3995 59.0469 68.2003 59.961 68.669 60.4766C68.9854 60.8399 72.8995 63.1133 73.3448 63.2071C73.7433 63.2891 74.3409 63.0547 74.4933 62.7618C74.6573 62.4688 74.6339 61.6954 74.4581 61.461C74.2237 61.1563 70.0284 58.7657 69.63 58.7188C69.4425 58.6954 69.1612 58.7188 69.0323 58.7774Z" fill="white"/>
</svg>

<svg width="100" height="99" fill="none" xmlns="http://www.w3.org/2000/svg"><rect x=".565" width="99" height="99" rx="49.5" fill="#8A8A8E"/><path d="m49.122 20.598-.305.375.035 2.742.036 2.754.328.281c.457.399 1.125.387 1.535-.023l.305-.317V20.81l-.293-.281c-.211-.223-.41-.293-.809-.293-.434 0-.562.058-.832.363zM35.529 24.243c-.258.304-.305.457-.258.797.07.492 2.297 4.394 2.73 4.769.434.398 1.032.363 1.477-.082.305-.305.352-.422.293-.797-.059-.469-2.414-4.64-2.754-4.91-.105-.082-.422-.152-.691-.152-.399 0-.54.058-.797.375zM62.856 24.125c-.164.152-.82 1.207-1.476 2.344-1.172 2.05-1.336 2.496-1.114 3.082.094.234.657.527 1.008.527.575-.012.832-.328 2.098-2.531 1.418-2.461 1.535-2.848.984-3.387-.375-.387-1.101-.398-1.5-.035zM47.775 29.68c-8.285 1.043-14.778 7.043-16.535 15.28-.364 1.677-.399 5.321-.06 7.09.95 5.134 3.915 9.645 8.216 12.505 2.074 1.382 1.98 1.148 2.05 4.957l.06 3.047.327.668c.352.714 1.067 1.417 1.664 1.629.34.128.375.199.492.913.247 1.56 1.196 2.872 2.59 3.551l.785.387h5.274l.738-.387c1.418-.738 2.414-2.144 2.567-3.597.07-.645.082-.668.62-.938.294-.152.739-.492.985-.762.797-.879.82-1.007.89-4.394l.06-3.047.327-.563c.246-.41.563-.703 1.172-1.101 4.7-3 7.84-7.652 8.766-13.02.328-1.886.328-4.605-.012-6.515-1.324-7.688-7.219-13.77-14.941-15.422-.903-.2-1.676-.258-3.399-.293-1.218-.023-2.414-.012-2.636.012zm4.687 2.332c7.219 1.09 12.95 6.773 14.133 14.004.387 2.39.176 5.297-.563 7.617-1.23 3.855-3.539 6.89-7.054 9.258-.657.433-1.371.996-1.582 1.242-.785.89-1.184 2.168-1.184 3.82v.797H43.673v-1.102c0-1.359-.293-2.402-.902-3.199-.516-.68-.492-.656-2.028-1.699-1.547-1.043-3.773-3.258-4.699-4.664a18.272 18.272 0 0 1-2.648-6.328c-.293-1.406-.293-4.805 0-6.211 1.136-5.32 4.418-9.621 9.164-11.988 2.976-1.489 6.61-2.051 9.902-1.547zm3.75 39.527c0 .317-.082.668-.187.82-.422.61-.457.61-6.082.61-4.723 0-5.274-.024-5.578-.2-.41-.246-.692-.796-.692-1.37v-.422h12.54v.562zm-2.46 3.832c0 .633-.68 1.547-1.466 1.969-.422.234-.644.258-2.343.258-1.7 0-1.922-.024-2.344-.258a3.063 3.063 0 0 1-.727-.528c-.27-.28-.726-1.218-.738-1.476 0-.105.844-.14 3.809-.14 3.34 0 3.808.023 3.808.175z" fill="#fff"/><path d="M47.482 35.96c-.422.247-.516.493-.528 1.278v.774l-.492.14c-.281.082-.797.305-1.16.48l-.645.317-.55-.504c-.47-.445-.61-.515-1.043-.515-.504 0-.54.035-2.18 1.675-1.594 1.618-1.664 1.7-1.664 2.157 0 .398.082.574.516 1.054l.515.563-.27.527c-.14.293-.351.774-.468 1.078l-.211.563h-.574c-.715 0-1.301.258-1.489.656-.187.41-.175 4.5.012 4.91.188.434.668.645 1.418.645h.633l.328.844c.176.468.398.984.492 1.136.164.258.153.305-.363.82-.457.47-.54.622-.54 1.008 0 .446.083.551 1.677 2.121.914.915 1.793 1.688 1.945 1.723.387.094.82-.094 1.313-.586l.433-.41 1.055.422c.574.234 1.113.422 1.183.422.082 0 .13.27.13.75 0 1.441.081 1.476 3.093 1.476 2.238 0 2.285 0 2.613-.28.282-.247.328-.376.364-1.114.023-.457.105-.832.175-.832.059 0 .563-.188 1.102-.422l.996-.422.434.422c.55.539 1.078.703 1.582.492.492-.21 3.316-3.094 3.41-3.492.117-.445-.024-.762-.563-1.348l-.468-.504.363-.797c.199-.433.398-.925.433-1.09.07-.292.13-.316.903-.363.726-.035.855-.082 1.101-.363.282-.328.282-.375.282-2.672 0-1.453-.047-2.437-.13-2.59-.175-.328-.808-.562-1.511-.562-.363 0-.586-.047-.586-.129s-.188-.586-.422-1.125l-.422-.984.48-.516c.552-.598.68-.984.481-1.453-.07-.176-.832-1.02-1.687-1.875-1.524-1.512-1.559-1.535-2.075-1.535-.468 0-.585.058-1.03.515l-.505.516-.726-.328a12.04 12.04 0 0 0-1.137-.457l-.434-.14-.046-.81c-.036-.656-.094-.878-.305-1.09-.258-.245-.352-.257-2.637-.292-1.652-.012-2.437.023-2.601.117zm3.34 2.72c0 .879.245 1.16 1.242 1.406.855.21 2.086.738 2.613 1.113.55.399 1.207.328 1.746-.164l.457-.398.563.574.562.574-.422.48c-.574.622-.562.938.082 2.145.293.528.656 1.418.832 1.98.364 1.208.54 1.383 1.43 1.383h.621v1.758h-.621c-.89 0-1.066.176-1.43 1.383-.176.563-.539 1.453-.832 1.98-.644 1.22-.656 1.524-.047 2.18l.457.504-.574.574-.574.563-.48-.422c-.645-.586-1.032-.574-2.262.082-.89.469-1.63.762-2.461.95-.188.034-.469.198-.621.35-.235.235-.282.4-.282.938v.645h-1.605l-.07-.656c-.094-.868-.352-1.137-1.325-1.383a9.202 9.202 0 0 1-2.484-1.043c-.703-.457-1.195-.422-1.781.117l-.48.422-.575-.563-.574-.562.398-.457c.575-.633.551-1.078-.105-2.332-.293-.54-.633-1.383-.762-1.864-.316-1.136-.597-1.406-1.488-1.406h-.633v-1.758h.68c.879 0 1.113-.234 1.441-1.418.13-.48.469-1.312.762-1.851.656-1.254.68-1.7.105-2.332l-.398-.457.574-.563.586-.574.445.434c.61.597.961.574 2.426-.153.645-.328 1.488-.668 1.875-.761.938-.235 1.219-.54 1.313-1.383l.07-.668h1.605v.633z" fill="#fff"/><path d="M48.384 41.62c-2.38.516-4.477 2.438-5.262 4.806-.27.796-.316 1.136-.316 2.285 0 1.16.047 1.465.304 2.203.446 1.23.973 2.039 1.91 2.93 1.723 1.64 3.973 2.308 6.34 1.886.926-.164 2.66-1.02 3.399-1.676 1.43-1.265 2.273-3.07 2.367-5.05.059-1.465-.152-2.438-.82-3.727-1.477-2.824-4.758-4.336-7.922-3.656zm2.73 2.227a4.903 4.903 0 0 1 2.414 1.43c2.356 2.496 1.617 6.375-1.5 7.852-2.437 1.16-5.32.117-6.539-2.356-1.804-3.68 1.664-7.957 5.625-6.926zM25.568 34.203c-.258.316-.305.457-.258.832.035.258.129.54.223.621.082.082 1.125.715 2.32 1.406 2.45 1.407 2.86 1.524 3.363.938.328-.387.364-1.102.07-1.465-.117-.129-1.171-.797-2.355-1.476-2.473-1.418-2.812-1.512-3.363-.856zM71.505 34.778c-.902.515-1.91 1.101-2.25 1.3-.832.504-1.043 1.032-.68 1.735.188.351.504.504 1.031.492.329-.012 4.243-2.18 4.747-2.637.375-.351.363-1.16-.036-1.547-.503-.515-.96-.41-2.812.657zM21.982 47.762c-.434.445-.457 1.031-.059 1.5l.281.328 2.672.035c3 .035 3.258-.011 3.528-.656.128-.305.14-.48.035-.797-.246-.726-.34-.75-3.375-.75h-2.742l-.34.34zM72.01 47.598c-.446.246-.622.855-.399 1.394.105.258.305.469.48.54.176.07 1.489.116 2.942.116h2.648l.34-.34c.246-.257.34-.456.34-.773 0-.316-.094-.515-.34-.773l-.34-.34h-2.683c-2.11.012-2.743.047-2.989.176zM27.97 59.914c-1.196.68-2.286 1.36-2.438 1.524-.375.433-.352 1.031.082 1.465.574.562.844.492 3.281-.914 1.196-.692 2.262-1.348 2.38-1.465.14-.141.21-.387.21-.727 0-.433-.058-.562-.363-.82-.2-.164-.504-.305-.668-.305-.188 0-1.207.504-2.484 1.242zM69.032 58.777c-.632.27-.832 1.184-.363 1.7.316.363 4.23 2.636 4.676 2.73.398.082.996-.152 1.148-.445.164-.293.14-1.067-.035-1.301-.234-.305-4.43-2.695-4.828-2.742-.188-.024-.469 0-.598.058z" fill="#fff"/></svg>
